X:1
T:God Bless Our School Today
T:God Bless Our School Today
T:Victor H. Benke
T:Frances Jane (Fanny) Crosby, 1901
T:Public Domain Courtesy of the Cyber Hymnal™
C:Victor H. Benke
Z:Public Domain
Z:Courtesy of the Cyber Hymnal™
%%score ( 1 2 ) 3
L:1/8
Q:1/4=105
M:6/8
K:Ab
V:1 treble 
V:2 treble 
V:3 bass 
V:1
 [CE] | [CE]2 [Ec] [CA]2 [CE] | [DF]2 [FB] [DF]2 [FA] | [EG]2 E [EA]2 [EB] | [Ec]3- [Ec]2 [CE] | %5
w: 1.~Our|Sun- day school, our|Sun- day school Is|like a gar- den|fair, * Where|
w: 2.~To|Je- sus let us|give our hearts, In|child- hood’s ear- ly|spring, * And|
w: 3.~To|Je- sus let us|give our lives, And|serve Him with de-|light, * Be-|
w: 4.~God|bless our school from|year to year, And|crown it with His|love, * Till,|
 [CE]2 [Ec] [CA]2 [EF] | [EG]2 [EA] [EB]2 [EG] | [EA]2 [EA] [=DG]2 [DF] | E3- E2 || %9
w: buds of prom- ise|grow and thrive Be-|neath our Sav- ior’s|care. *|
w: then, with true be-|liev- ing faith, We|all His love may|sing. *|
w: fore the sum- mer|days are gone, And|au- tumn takes its|flight. *|
w: one by one, He|calls us home, To|dwell with Him a-|bove. *|
"^Refrain" [Ec] | [Ae]2 [Ec] [EB]2 [Ec] | [Ed]2 [Ec] [EB]2 [EB] | [EA]2 [Ec] [FA]2 [DF] | %13
w: ||||
w: ||||
w: ||||
w: ||||
 [CE]3- [CE]2 [CA] | [Ec]2 [EB] [EA]2 [EG] | [DF]2 [FB] !fermata![Fd]2 [FB] | %16
w: |||
w: |||
w: |||
w: |||
 [Ae]2 [Ac] [FA]2 [GB] | [EA]3- [EA]2 |] %18
w: ||
w: ||
w: ||
w: ||
V:2
 x | x6 | x6 | x2 E x3 | x6 | x6 | x6 | x6 | E3- E2 || x | x6 | x6 | x6 | x6 | x6 | x6 | x6 | x5 |] %18
V:3
 [A,,A,] | [A,,A,]2 [A,,E,] [A,,E,]2 [A,,A,] | [D,A,]2 [D,D] [D,B,]2 [D,D] | %3
w: ~|~ ~ ~ ~|~ ~ ~ ~|
 [E,B,]2 [D,G,] [C,A,]2 [B,,G,] | [A,,A,]3- [A,,A,]2 [A,,A,] | [A,,A,]2 [A,,E,] [A,,A,]2 [C,A,] | %6
w: ~ ~ ~ ~|~ * ~|~ ~ ~ ~|
 [B,,B,]2 [B,,F,] [B,,G,]2 [B,,B,] | [B,,C]2 [B,,C] [B,,B,]2 [B,,A,] | [E,G,]3- [E,G,]2 || %9
w: ~ ~ ~ ~|~ ~ ~ ~|~ *|
 [A,,A,] | [A,,C]2 [C,A,] [E,G,]2 [E,A,] | [E,B,]2 [E,A,] [E,G,]2 [D,G,] | %12
w: And|while with- in these|hap- py walls We|
 [C,A,]2 [A,,A,] [D,A,]2 [D,A,] | [A,,A,]3- [A,,A,]2 [A,,A,] | [A,,A,]2 [B,,G,] [C,A,]2 [C,A,] | %15
w: ga- ther now to|pray, * Be|this the bur- den|
 [D,A,]2 [D,B,] !fermata![B,,B,]2 [D,B,] | [E,C]2 [E,E] [E,D]2 [E,D] | [A,,C]3- [A,,C]2 |] %18
w: of our prayer: God|bless our school to-|day. *|

